X: 10733
M: 6/8
L: 1/8
K: F
!p!c |\
f2f f2f | f2F F2c | g2g g2g | g3- g2c |\
(a2g) (gfe) | (edc) (cBA) | Gdc BAG | FAB cde |
f2f f2f | f2F F2c | g2g g2g | g3- g2c |\
(a2g) (gfe) | (edc) (cBA) | Gdc BAG | FAc f2 H|]
!p!G |\
d2e f2^c | d2d f2^f | gec GA=B | ced ceg |\
b3 aba | g3 fgf | efg fed | c3 z2 |]
!p!B |\
bab aba | gag fgf | efg fed | dc=B cd"^D.C."e |]


